X: 31362
T: COTILLION No. 27. CONCORD SETT tune 2
C:
%R: reel
B: Elias Howe "The Musician's Companion" Part 3 1844 p.136 #2
S: http://imslp.org/wiki/The_Musician's_Companion_(Howe,_Elias)
Z: 2015 John Chambers <jc:trillian.mit.edu>
M: 2/4
L: 1/16
K: C
% - - - - - - - - - - - - - - - - - - - - - - - - - - - - -
Gc |\
e2e2 efde | c2c2c2 dc | Bdgf egfe | d2d2d2 Gc |\
e2e2 efde | c2c2c2 dc | Bcdc BGAB | c2e2c2 H|]
ef |\
g^fgf gbag | =fefe f2de | fefe fagf | e^ded e2G2 |\
cBcd e^ded | g^fgf g2ag | fedc BcdB | c2e2"^D.C."c2 |]
% - - - - - - - - - - Dance description - - - - - - - - - -
%%begintext align
%% First 2 forward and back,
%% cross over,
%% chassa de chassa,
%% cross back,
%% ladies chain,
%% promenade 4.
%% Next couple, forward, &c.
%%endtext
% - - - - - - - - - - - - - - - - - - - - - - - - - - - - -
%%sep 1 1 300
